X: 67
T:Mc Kenna's Jig #2
M:6/8
L:1/8
R:jig
K:A
cBA eAA|fAA eAA|cBA eAA|faf ecA|cBA eAA|fAA eAA|Ace faf|ecA A2 B:|cee ef
e|cea ecA|dff f2 e|dff f2 e|cee efe|cea ecA|dcd faf|1ecA A2 B:|2ecA A3
||
